src/Resource_Files/fluent/metadata-editor.svg

<svg clip-rule="evenodd" fill-rule="evenodd" stroke-linejoin="round" stroke-miterlimit="2" viewBox="0 0 16 16" xmlns="http://www.w3.org/2000/svg"><g fill="#1abc9c" fill-rule="nonzero" transform="translate(-2 -2)"><path d="m7.924 7.235c-.118-.189-.347-.277-.562-.216-.214.062-.362.258-.362.481v5c0 .276.224.5.5.5s.5-.224.5-.5v-3.257l1.576 2.522c.091.146.252.235.424.235s.333-.089.424-.235l1.576-2.522v3.257c0 .276.224.5.5.5s.5-.224.5-.5v-5c0-.223-.148-.419-.362-.481-.215-.061-.444.027-.562.216l-2.076 3.322z"/><path d="m6 3c-1.657 0-3 1.343-3 3v8c0 1.657 1.343 3 3 3h8c1.657 0 3-1.343 3-3v-8c0-1.657-1.343-3-3-3zm-2 3c0-1.105.895-2 2-2h8c1.105 0 2 .895 2 2v8c0 1.105-.895 2-2 2h-8c-1.105 0-2-.895-2-2z"/></g></svg>

<?xml version="1.0" encoding="UTF-8" standalone="no"?>
<!DOCTYPE svg PUBLIC "-//W3C//DTD SVG 1.1//EN" "http://www.w3.org/Graphics/SVG/1.1/DTD/svg11.dtd">
<svg width="100%" height="100%" viewBox="0 0 16 16" version="1.1" xmlns="http://www.w3.org/2000/svg" xmlns:xlink="http://www.w3.org/1999/xlink" xml:space="preserve" xmlns:serif="http://www.serif.com/" style="fill-rule:evenodd;clip-rule:evenodd;stroke-linejoin:round;stroke-miterlimit:2;">
    <g transform="matrix(1,0,0,1,-2,-2)">
        <path d="M7.924,7.235C7.806,7.046 7.577,6.958 7.362,7.019C7.148,7.081 7,7.277 7,7.5L7,12.5C7,12.776 7.224,13 7.5,13C7.776,13 8,12.776 8,12.5L8,9.243L9.576,11.765C9.667,11.911 9.828,12 10,12C10.172,12 10.333,11.911 10.424,11.765L12,9.243L12,12.5C12,12.776 12.224,13 12.5,13C12.776,13 13,12.776 13,12.5L13,7.5C13,7.277 12.852,7.081 12.638,7.019C12.423,6.958 12.194,7.046 12.076,7.235L10,10.557L7.924,7.235Z" style="fill:rgb(26,188,156);fill-rule:nonzero;"/>
    </g>
    <g transform="matrix(1,0,0,1,-2,-2)">
        <path d="M6,3C4.343,3 3,4.343 3,6L3,14C3,15.657 4.343,17 6,17L14,17C15.657,17 17,15.657 17,14L17,6C17,4.343 15.657,3 14,3L6,3ZM4,6C4,4.895 4.895,4 6,4L14,4C15.105,4 16,4.895 16,6L16,14C16,15.105 15.105,16 14,16L6,16C4.895,16 4,15.105 4,14L4,6Z" style="fill:rgb(26,188,156);fill-rule:nonzero;"/>
    </g>
</svg>
